swiss/communes/0224.svg

<?xml version="1.0" encoding="UTF-8" standalone="no"?>
<!-- Created with Inkscape (http://www.inkscape.org/) -->
<svg
   xmlns:svg="http://www.w3.org/2000/svg"
   xmlns="http://www.w3.org/2000/svg"
   version="1.0"
   width="234.96852"
   height="275.229"
   id="svg2780">
  <defs
     id="defs2782" />
  <g
     transform="translate(256.7824,-861.35407)"
     id="layer1">
    <path
       d="M -255.7824,862.35407 L -251.54662,1040.2706 C -248.52106,1167.3539 -30.075228,1167.3539 -27.049668,1040.2706 L -22.813878,862.35407 L -255.7824,862.35407 z"
       id="path3282"
       style="fill:#2163bd;fill-opacity:1;fill-rule:evenodd;stroke:none;stroke-width:2;stroke-linecap:butt;stroke-miterlimit:4;stroke-dashoffset:0;stroke-opacity:1" />
    <path
       d="M -253.55831,959.93257 L -236.29814,959.93257 L -236.29814,990.57333 L -215.61064,990.57333 L -215.61064,959.93257 L -178.52731,959.93257 L -178.52731,990.57333 L -157.83981,990.57333 L -157.83981,959.93257 L -120.75648,959.93257 L -120.75648,990.57333 L -100.06898,990.57333 L -100.06898,959.93257 L -62.985648,959.93257 L -62.985648,990.57333 L -42.298148,990.57333 L -42.298148,959.93257 L -25.214558,959.93257 L -27.060768,1040.2608 C -27.847498,1073.0243 -42.933118,1097.3597 -64.967018,1113.2296 C -105.94738,1086.3823 -134.32042,1041.9043 -139.24827,990.57333 C -144.17756,1041.9194 -172.59219,1086.4161 -213.59202,1113.2608 C -235.6453,1097.3915 -250.7863,1073.0423 -251.56077,1040.2608 L -253.55831,959.93257 z"
       id="path3668"
       style="fill:#ffffff;fill-opacity:1;fill-rule:evenodd;stroke:#000000;stroke-width:0.99921262;stroke-linecap:butt;stroke-linejoin:miter;stroke-miterlimit:4;stroke-dasharray:none;stroke-opacity:1" />
    <path
       d="M -100.02826,1082.4159 L -37.504178,1081.8862"
       id="path3728"
       style="fill:none;fill-opacity:0.75;fill-rule:evenodd;stroke:#000000;stroke-width:1px;stroke-linecap:butt;stroke-linejoin:miter;stroke-opacity:1" />
    <path
       d="M -241.13712,1081.904 L -178.51148,1082.4169"
       id="path3724"
       style="fill:none;fill-opacity:0.75;fill-rule:evenodd;stroke:#000000;stroke-width:1px;stroke-linecap:butt;stroke-linejoin:miter;stroke-opacity:1" />
    <path
       d="M -120.80691,1051.922 L -27.964298,1051.922"
       id="path3739"
       style="fill:none;fill-opacity:0.75;fill-rule:evenodd;stroke:#000000;stroke-width:1px;stroke-linecap:butt;stroke-linejoin:miter;stroke-opacity:1" />
    <path
       d="M -250.6659,1051.922 L -157.65218,1051.922"
       id="path3735"
       style="fill:none;fill-opacity:0.75;fill-rule:evenodd;stroke:#000000;stroke-width:1px;stroke-linecap:butt;stroke-linejoin:miter;stroke-opacity:1" />
    <path
       d="M -110.41273,1051.4225 L -110.41273,1021.7472"
       id="path3380"
       style="fill:none;fill-opacity:0.75;fill-rule:evenodd;stroke:#000000;stroke-width:1px;stroke-linecap:butt;stroke-linejoin:miter;stroke-opacity:1" />
    <path
       d="M -168.18356,1051.4225 L -168.18356,1021.7472"
       id="path3384"
       style="fill:none;fill-opacity:0.75;fill-rule:evenodd;stroke:#000000;stroke-width:1px;stroke-linecap:butt;stroke-linejoin:miter;stroke-opacity:1" />
    <path
       d="M -52.641898,1051.4225 L -52.641898,1021.7472"
       id="path3372"
       style="fill:none;fill-opacity:0.75;fill-rule:evenodd;stroke:#000000;stroke-width:1px;stroke-linecap:butt;stroke-linejoin:miter;stroke-opacity:1" />
    <path
       d="M -52.641888,1101.8129 L -52.641888,1081.7365"
       id="path3710"
       style="fill:none;fill-opacity:0.75;fill-rule:evenodd;stroke:#000000;stroke-width:1px;stroke-linecap:butt;stroke-linejoin:miter;stroke-opacity:1" />
    <path
       d="M -225.95439,1102.9411 L -225.95439,1081.7365"
       id="path3714"
       style="fill:none;fill-opacity:0.75;fill-rule:evenodd;stroke:#000000;stroke-width:1px;stroke-linecap:butt;stroke-linejoin:miter;stroke-opacity:1" />
    <path
       d="M -225.95439,1051.4225 L -225.95439,1021.7472"
       id="path3382"
       style="fill:none;fill-opacity:0.75;fill-rule:evenodd;stroke:#000000;stroke-width:1px;stroke-linecap:butt;stroke-linejoin:miter;stroke-opacity:1" />
    <path
       d="M -197.06897,1082.0969 L -197.06897,1052.4216"
       id="path3354"
       style="fill:none;fill-opacity:0.75;fill-rule:evenodd;stroke:#000000;stroke-width:1px;stroke-linecap:butt;stroke-linejoin:miter;stroke-opacity:1" />
    <path
       d="M -197.06897,1020.782 L -197.06897,991.10665"
       id="path3386"
       style="fill:none;fill-opacity:0.75;fill-rule:evenodd;stroke:#000000;stroke-width:1px;stroke-linecap:butt;stroke-linejoin:miter;stroke-opacity:1" />
    <path
       d="M -81.527308,1082.0969 L -81.527308,1052.4216"
       id="path3352"
       style="fill:none;fill-opacity:0.75;fill-rule:evenodd;stroke:#000000;stroke-width:1px;stroke-linecap:butt;stroke-linejoin:miter;stroke-opacity:1" />
    <path
       d="M -81.527308,1020.782 L -81.527308,991.10665"
       id="path3394"
       style="fill:none;fill-opacity:0.75;fill-rule:evenodd;stroke:#000000;stroke-width:1px;stroke-linecap:butt;stroke-linejoin:miter;stroke-opacity:1" />
    <path
       d="M -133.24865,1021.2813 L -26.626728,1021.2813"
       id="path3750"
       style="fill:none;fill-opacity:0.75;fill-rule:evenodd;stroke:#000000;stroke-width:1px;stroke-linecap:butt;stroke-linejoin:miter;stroke-opacity:1" />
    <path
       d="M -252.04452,1021.2813 L -145.25323,1021.2813"
       id="path3746"
       style="fill:none;fill-opacity:0.75;fill-rule:evenodd;stroke:#000000;stroke-width:1px;stroke-linecap:butt;stroke-linejoin:miter;stroke-opacity:1" />
    <path
       d="M -252.73546,990.60692 L -25.864168,990.60692"
       id="path3676"
       style="fill:none;fill-opacity:0.75;fill-rule:evenodd;stroke:#000000;stroke-width:0.99921262;stroke-linecap:butt;stroke-linejoin:miter;stroke-miterlimit:4;stroke-dasharray:none;stroke-opacity:1" />
    <path
       d="M -255.7824,862.35407 L -251.54662,1040.2706 C -248.52106,1167.3539 -30.075228,1167.3539 -27.049668,1040.2706 L -22.813878,862.35407 L -255.7824,862.35407 z"
       id="path3670"
       style="fill:none;fill-opacity:1;fill-rule:evenodd;stroke:#000000;stroke-width:2;stroke-linecap:butt;stroke-miterlimit:4;stroke-dashoffset:0;stroke-opacity:1" />
  </g>
</svg>

<svg xmlns="http://www.w3.org/2000/svg" version="1.0" width="234.969" height="275.229"><path d="m-255.782 862.354 4.235 177.917c3.026 127.083 221.472 127.083 224.497 0l4.236-177.917h-232.968z" style="fill:#2163bd;fill-opacity:1;fill-rule:evenodd;stroke:none;stroke-width:2;stroke-linecap:butt;stroke-miterlimit:4;stroke-dashoffset:0;stroke-opacity:1" transform="translate(256.782 -861.354)"/><path d="M-253.558 959.933h17.26v30.64h20.687v-30.64h37.084v30.64h20.687v-30.64h37.084v30.64h20.687v-30.64h37.083v30.64h20.688v-30.64h17.083l-1.846 80.328c-.786 32.763-15.872 57.099-37.906 72.969-40.98-26.848-69.353-71.326-74.281-122.657-4.93 51.346-33.344 95.843-74.344 122.688-22.053-15.87-37.194-40.219-37.969-73l-1.997-80.328z" style="fill:#fff;fill-opacity:1;fill-rule:evenodd;stroke:#000;stroke-width:.99921262;stroke-linecap:butt;stroke-linejoin:miter;stroke-miterlimit:4;stroke-dasharray:none;stroke-opacity:1" transform="translate(256.782 -861.354)"/><path d="m-100.028 1082.416 62.524-.53M-241.137 1081.904l62.626.513M-120.807 1051.922h92.843M-250.666 1051.922h93.014M-110.413 1051.422v-29.675M-168.184 1051.422v-29.675M-52.642 1051.422v-29.675M-52.642 1101.813v-20.077M-225.954 1102.941v-21.205M-225.954 1051.422v-29.675M-197.069 1082.097v-29.675M-197.069 1020.782v-29.675M-81.527 1082.097v-29.675M-81.527 1020.782v-29.675M-133.249 1021.281h106.622M-252.045 1021.281h106.792" style="fill:none;fill-opacity:.75;fill-rule:evenodd;stroke:#000;stroke-width:1px;stroke-linecap:butt;stroke-linejoin:miter;stroke-opacity:1" transform="translate(256.782 -861.354)"/><path d="M-252.735 990.607h226.87" style="fill:none;fill-opacity:.75;fill-rule:evenodd;stroke:#000;stroke-width:.99921262;stroke-linecap:butt;stroke-linejoin:miter;stroke-miterlimit:4;stroke-dasharray:none;stroke-opacity:1" transform="translate(256.782 -861.354)"/><path d="m-255.782 862.354 4.235 177.917c3.026 127.083 221.472 127.083 224.497 0l4.236-177.917h-232.968z" style="fill:none;fill-opacity:1;fill-rule:evenodd;stroke:#000;stroke-width:2;stroke-linecap:butt;stroke-miterlimit:4;stroke-dashoffset:0;stroke-opacity:1" transform="translate(256.782 -861.354)"/></svg>
